src/svg-icons/svg/room-sky.svg

<?xml version="1.0" encoding="UTF-8" standalone="no"?>
<svg width="32px" height="32px" viewBox="0 0 32 32" version="1.1" xmlns="http://www.w3.org/2000/svg" xmlns:xlink="http://www.w3.org/1999/xlink">
    <!-- Generator: Sketch 3.7.2 (28276) - http://www.bohemiancoding.com/sketch -->
    <title>Artboard 1</title>
    <desc>Created with Sketch.</desc>
    <defs></defs>
    <g id="Page-1" stroke="none" stroke-width="1" fill="none" fill-rule="evenodd">
        <g id="Artboard-1" fill="#707782">
            <path d="M24.0994766,18.232998 C25.0541956,17.2688345 25.6,15.969254 25.6,14.5849057 C25.6,11.7213613 23.2786387,9.4 20.4150943,9.4 C19.1076263,9.4 17.8744858,9.88662616 16.9268028,10.7488399 L17.7343607,11.6364492 C18.4632164,10.9733272 19.4092505,10.6 20.4150943,10.6 C22.615897,10.6 24.4,12.384103 24.4,14.5849057 C24.4,15.6498026 23.9812053,16.6469684 23.2467824,17.3886565 L24.0994766,18.232998 L24.0994766,18.232998 Z" id="Oval-7"></path>
            <path d="M11.0754717,22.4867925 L20.5849057,22.4867925 C22.5947702,22.3816039 24.2415094,20.6991788 24.2415094,18.6603774 C24.2415094,16.7253995 22.8321533,15.0690918 20.8074341,14.8615112 C20.4579714,12.3513969 18.3123518,10.4188679 15.6603774,10.4188679 C13.6388799,10.4188679 11.839522,11.548606 10.9099998,13.46 C10.362467,13.4754717 9.84172426,13.5715945 9.35951406,13.7477582 C7.63268513,14.3786129 6.4,16.035918 6.4,17.9811321 C6.4,20.4695396 8.41725287,22.4867925 10.9056604,22.4867925 C10.9713989,22.4867925 11.0369904,22.4853806 11.1024035,22.4825637 L11.0754717,22.4867925 Z M11.0507765,21.2836748 C11.0025607,21.2857511 10.9541823,21.2867925 10.9056604,21.2867925 C9.07999457,21.2867925 7.6,19.8067979 7.6,17.9811321 C7.6,16.1554663 9.07999457,14.6754717 10.9056604,14.6754717 C11.0152601,14.6754717 11.1241138,14.6807847 11.2319916,14.6913322 L11.7095809,14.7380274 L11.8600974,14.2823777 C12.3787665,12.712242 13.9068897,11.6188679 15.6603774,11.6188679 C17.8661407,11.6188679 19.645283,13.3321161 19.645283,15.4339623 C19.6452828,15.43521 19.6534667,15.5254874 19.6555176,15.7401123 C19.6565772,15.8509989 19.6350708,15.9923096 19.6216431,16.1251831 C19.6677017,16.1227948 19.8277613,16.1039514 20.0855103,16.0675659 C20.3432592,16.0311804 20.5839844,16.0395508 20.5839844,16.0395508 C22.0345134,16.0395508 23.0415094,17.2098484 23.0415094,18.6603774 C23.0415094,20.0596487 21.9441564,21.2115446 20.5530121,21.283248 L11.0507765,21.2836748 Z" id="Combined-Shape"></path>
            <path d="M8.75849057,16.9811321 C8.75849057,18.719266 10.1675265,20.1283019 11.9056604,20.1283019 L11.9056604,18.9283019 C10.8302682,18.9283019 9.95849057,18.0565243 9.95849057,16.9811321 L8.75849057,16.9811321 L8.75849057,16.9811321 Z" id="Oval-1155"></path>
        </g>
    </g>
</svg>

<svg width="32" height="32" viewBox="0 0 32 32" xmlns="http://www.w3.org/2000/svg"><g fill="#707782" fill-rule="evenodd"><path d="M24.1 18.233a5.185 5.185 0 0 0-7.173-7.484l.807.887a3.985 3.985 0 0 1 5.512 5.752l.853.845z"/><path d="M11.075 22.487h9.51c2.01-.105 3.657-1.788 3.657-3.827 0-1.935-1.41-3.59-3.435-3.798a5.164 5.164 0 0 0-5.147-4.443c-2.02 0-3.82 1.13-4.75 3.04a4.91 4.91 0 0 0-1.55.288 4.507 4.507 0 0 0 1.742 8.735l-.027.004zm-.024-1.203a3.306 3.306 0 1 1 .18-6.592l.48.046.15-.456c.52-1.57 2.047-2.663 3.8-2.663 2.206 0 3.985 1.712 3.985 3.814 0 0 .008.09.01.306.002.11-.02.252-.033.385.046-.002.206-.02.464-.057.257-.037.498-.028.498-.028 1.45 0 2.458 1.17 2.458 2.62 0 1.4-1.098 2.552-2.49 2.623h-9.5z"/><path d="M8.758 16.98a3.147 3.147 0 0 0 3.148 3.148v-1.2a1.947 1.947 0 0 1-1.948-1.947h-1.2z"/></g></svg>
